src/lib/packages/icons/src/assets/filled/clipboard-times.svg

<svg width="24" height="24" viewBox="0 0 24 24" fill="none" xmlns="http://www.w3.org/2000/svg">
<path d="M8 5.5V4.5C8 3.5 8.5 3 9.5 3H14.5C15.5 3 16 3.5 16 4.5V5.5C16 6.5 15.5 7 14.5 7H9.5C8.5 7 8 6.5 8 5.5ZM20 8V18C20 20 19 21 17 21H7C5 21 4 20 4 18V8C4 6.258 4.75189 5.27701 6.26489 5.05701C6.38589 5.03901 6.5 5.13899 6.5 5.26099V5.49902C6.5 7.31902 7.68 8.49902 9.5 8.49902H14.5C16.32 8.49902 17.5 7.31902 17.5 5.49902V5.26099C17.5 5.13899 17.6151 5.03901 17.7351 5.05701C19.2481 5.27701 20 6.258 20 8ZM13.061 13.5L14.531 12.03C14.824 11.737 14.824 11.262 14.531 10.969C14.238 10.676 13.763 10.676 13.47 10.969L12 12.439L10.53 10.969C10.237 10.676 9.76199 10.676 9.46899 10.969C9.17599 11.262 9.17599 11.737 9.46899 12.03L10.939 13.5L9.46899 14.97C9.17599 15.263 9.17599 15.738 9.46899 16.031C9.61499 16.177 9.80702 16.251 9.99902 16.251C10.191 16.251 10.3831 16.178 10.5291 16.031L11.999 14.561L13.469 16.031C13.615 16.177 13.807 16.251 13.999 16.251C14.191 16.251 14.3831 16.178 14.5291 16.031C14.8221 15.738 14.8221 15.263 14.5291 14.97L13.061 13.5Z" fill="currentColor"/>
</svg>

<svg xmlns="http://www.w3.org/2000/svg" width="24" height="24" fill="none"><path fill="currentColor" d="M8 5.5v-1C8 3.5 8.5 3 9.5 3h5c1 0 1.5.5 1.5 1.5v1c0 1-.5 1.5-1.5 1.5h-5C8.5 7 8 6.5 8 5.5ZM20 8v10c0 2-1 3-3 3H7c-2 0-3-1-3-3V8c0-1.742.752-2.723 2.265-2.943a.21.21 0 0 1 .235.204v.238c0 1.82 1.18 3 3 3h5c1.82 0 3-1.18 3-3v-.238a.21.21 0 0 1 .235-.204C19.248 5.277 20 6.258 20 8Zm-6.939 5.5 1.47-1.47a.75.75 0 1 0-1.061-1.061L12 12.439l-1.47-1.47a.75.75 0 1 0-1.061 1.061l1.47 1.47-1.47 1.47a.75.75 0 0 0 1.06 1.061l1.47-1.47 1.47 1.47a.748.748 0 0 0 1.06 0 .75.75 0 0 0 0-1.061l-1.468-1.47Z"/></svg>
